X:5
T:Menuette de Esser
T:ur J H Anderssons notbok (Ma11 - 5)
R:Menuett
O:Fjärås, Halland
B:J H Anderssons notbok
N:Nr 5 i Ma11.
Z:Till abc Jonas Brunskog
M:3/4
L:1/8
K:Bb
B>G, A,3 B|((3cde) d2 c2|d>G, A,3 B|((3cde) d2 c2|
((3dBd) ((3dBd) ((3def)|((3cAc) ((3cAc) ((3cfc)|(e/d/c/B/) A2 G2| F6:|
|:f>[G,G] [G,G]3 f|((3edc) ((3Bcd) c2|e>F F3 e|((3dcB) ((3ABc) B2|
((3GEG) ((3GEG) ((3G_AB)|((3FDF) ((3FDF) ((3FBF)|((3GFE) D2 C2|B,6:|

